assets/images/unavailable.svg

<svg fill="none" height="800" viewBox="0 0 24 24" width="800" xmlns="http://www.w3.org/2000/svg" xmlns:xlink="http://www.w3.org/1999/xlink"><clipPath id="a"><path d="m0 0h24v24h-24z"/></clipPath><g clip-path="url(#a)"><path d="m5.63604 5.63598c-1.62868 1.62868-2.63604 3.87868-2.63604 6.36392 0 4.9706 4.02944 9 9 9 2.4853 0 4.7353-1.0073 6.364-2.636m-12.72796-12.72792c1.62868-1.62868 3.87868-2.63604 6.36396-2.63604 4.9706 0 9 4.02944 9 8.99996 0 2.4853-1.0074 4.7353-2.636 6.364m-12.72796-12.72792 12.72796 12.72792" stroke="#292929" stroke-linecap="round" stroke-linejoin="round" stroke-width="2.5"/></g></svg>

<?xml version="1.0" encoding="utf-8"?>
<!-- Uploaded to: SVG Repo, www.svgrepo.com, Generator: SVG Repo Mixer Tools -->
<svg width="800px" height="800px" viewBox="0 0 24 24" fill="none" xmlns="http://www.w3.org/2000/svg">
<g clip-path="url(#clip0_429_11057)">
<path d="M5.63604 5.63598C4.00736 7.26466 3 9.51466 3 11.9999C3 16.9705 7.02944 20.9999 12 20.9999C14.4853 20.9999 16.7353 19.9926 18.364 18.3639M5.63604 5.63598C7.26472 4.0073 9.51472 2.99994 12 2.99994C16.9706 2.99994 21 7.02938 21 11.9999C21 14.4852 19.9926 16.7352 18.364 18.3639M5.63604 5.63598L18.364 18.3639" stroke="#292929" stroke-width="2.5" stroke-linecap="round" stroke-linejoin="round"/>
</g>
<defs>
<clipPath id="clip0_429_11057">
<rect width="24" height="24" fill="white"/>
</clipPath>
</defs>
</svg>
